X: 4279
T: Bob's Tune
R: reel
M: 4/4
K: Gmajor
B3cA2d2|G3A GFED|E3{F}G D2FG|E3{F}G A4|
B3cA2d2|G3A GFED|E3{B}c A2d2|G8|
B3cA2d2|G3A GFED|E3{F}G D2FG|E3{F}G B2A2|
B3cA2d2|G3A GFED|E3{B}c A2d2|G8|
d3d g3g|f{f}efg e2B2|c3a B2 cB|{B}A8|
d3d g3g|f{f}efg e2B2|c3{B}A d3F|G8|
d3d g3g|f{f}efg e2B2|c3a B2 cB|{B}A8|
B3cA2d2|G3A GFED|E3{B}c A2d2|G8||

